map/src/assets/icons/ic_action_info_outlined.svg

<svg width="24" height="24" viewBox="0 0 24 24" xmlns="http://www.w3.org/2000/svg">
<g id="ic_action_info_outlined">
<g id="Union">
<path d="M11 8V6H13V8H11Z"/>
<path d="M11 17V10H13V17H11Z"/>
<path fill-rule="evenodd" clip-rule="evenodd" d="M22 12C22 17.5228 17.5228 22 12 22C6.47715 22 2 17.5228 2 12C2 6.47715 6.47715 2 12 2C17.5228 2 22 6.47715 22 12ZM20 12C20 16.4183 16.4183 20 12 20C7.58172 20 4 16.4183 4 12C4 7.58172 7.58172 4 12 4C16.4183 4 20 7.58172 20 12Z" />
</g>
</g>
</svg>

<svg xmlns="http://www.w3.org/2000/svg" width="24" height="24" viewBox="0 0 24 24">
  <path d="M11 8V6h2v2h-2Zm0 9v-7h2v7h-2Z"/>
  <path fill-rule="evenodd" d="M22 12c0 5.523-4.477 10-10 10S2 17.523 2 12 6.477 2 12 2s10 4.477 10 10Zm-2 0a8 8 0 1 1-16 0 8 8 0 0 1 16 0Z" clip-rule="evenodd"/>
</svg>
